molo/core/static/images/svgs/open.svg

<?xml version="1.0" encoding="UTF-8" standalone="no"?>
<svg width="24px" height="24px" viewBox="0 0 24 24" version="1.1" xmlns="http://www.w3.org/2000/svg" xmlns:xlink="http://www.w3.org/1999/xlink">
    <!-- Generator: Sketch 43.1 (39012) - http://www.bohemiancoding.com/sketch -->
    <title>icons/open</title>
    <desc>Created with Sketch.</desc>
    <defs>
        <path d="M12,24 C18.627417,24 24,18.627417 24,12 C24,5.372583 18.627417,0 12,0 C5.372583,0 0,6.872583 0,13.5 C0,20.127417 5.372583,24 12,24 Z" id="path-1"></path>
    </defs>
    <g id="Basics" stroke="none" stroke-width="1" fill="none" fill-rule="evenodd">
        <g id="basics/icons" transform="translate(-684.000000, -519.000000)">
            <g id="icon" transform="translate(629.000000, 487.000000)">
                <g id="icons/selected" transform="translate(55.000000, 32.000000)">
                    <g>
                        <g id="select">
                            <use fill="#7300FF" fill-rule="evenodd" xlink:href="#path-1"></use>
                            <path stroke="#7300FF" stroke-width="2" d="M12,23 C5.54158342,23 1,19.242684 1,13.5 C1,7.10655525 6.20732388,1 12,1 C18.0751322,1 23,5.92486775 23,12 C23,18.0751322 18.0751322,23 12,23 Z"></path>
                        </g>
                        <path d="M12,18 C16,18 18,15 18,12 C18,9 15.3137085,6 12,6 C8.6862915,6 6,8.6862915 6,12 C6,15.3137085 8,18 12,18 Z" id="selected" fill="#FFFC80"></path>
                    </g>
                </g>
            </g>
        </g>
    </g>
</svg>

<svg width="24" height="24" viewBox="0 0 24 24" xmlns="http://www.w3.org/2000/svg" xmlns:xlink="http://www.w3.org/1999/xlink">
    <title>
        icons/open
    </title>
    <defs>
        <path d="M12 24c6.627 0 12-5.373 12-12S18.627 0 12 0 0 6.873 0 13.5 5.373 24 12 24z" id="a"/>
    </defs>
    <g fill="none" fill-rule="evenodd">
        <g>
            <use fill="#7300FF" xlink:href="#a"/>
            <path stroke="#7300FF" stroke-width="2" d="M12 23c-6.458 0-11-3.757-11-9.5C1 7.107 6.207 1 12 1c6.075 0 11 4.925 11 11s-4.925 11-11 11z"/>
        </g>
        <path d="M12 18c4 0 6-3 6-6s-2.686-6-6-6a6 6 0 0 0-6 6c0 3.314 2 6 6 6z" fill="#FFFC80"/>
    </g>
</svg>
